rospo-dark/16x16/panel/qtpass-tray.svg

<svg height="22" width="22" xmlns="http://www.w3.org/2000/svg"><path d="m11 3c-1.26666 0-2.35614.557-3.03086 1.4004-.67472.84338-.96914 1.91442-.96914 2.9996v6.6h2v-6.6c0-.71482.20558-1.34378.53086-1.7504.32528-.4066.7358-.6496 1.46914-.6496s1.14386.243 1.46914.6496c.32528.40662.53086 1.03558.53086 1.7504v6.6h2v-6.6c0-1.08518-.29442-2.15622-.96914-2.9996-.67472-.8434-1.7642-1.4004-3.03086-1.4004z" fill="#d3dae3" opacity=".3"/><path d="m8.3587304 8.0039062c-1.9258014-.087456-3.2581206 1.4819294-3.3532802 3.1816408-.049403.882426.2347857 1.799905.9421955 2.539062l5.0523533 5.275391 5.052354-5.275391c.707406-.739148.991594-1.656622.942195-2.539062-.09516-1.6997002-1.427479-3.2691008-3.35328-3.1816408-1.096126.04958-2.092147.680055-2.641269 1.671875-.549125-.9918285-1.5451519-1.6222958-2.6412686-1.671875zm1.6425026 2.9960938h.998766.998767v2h-.477926l.977309 2h-1.49815-1.4981493l.9773093-2h-.477926z" fill="#d3dae3"/></svg>

<svg xmlns="http://www.w3.org/2000/svg" width="22" height="22" version="1.1">
 <defs>
  <style id="current-color-scheme" type="text/css">
   .ColorScheme-Text { color:#d3dae3; } .ColorScheme-Highlight { color:#5294e2; }
  </style>
 </defs>
 <path style="opacity:0.3;fill:currentColor" class="ColorScheme-Text" d="M 11,3 C 9.73334,3 8.64386,3.557 7.96914,4.4004 7.29442,5.24378 7,6.31482 7,7.4 L 7,14 9,14 9,7.4 C 9,6.68518 9.20558,6.05622 9.53086,5.6496 9.85614,5.243 10.26666,5 11,5 11.73334,5 12.14386,5.243 12.46914,5.6496 12.79442,6.05622 13,6.68518 13,7.4 l 0,6.6 2,0 0,-6.6 C 15,6.31482 14.70558,5.24378 14.03086,4.4004 13.35614,3.557 12.26666,3 11,3 Z"/>
 <path style="fill:currentColor" class="ColorScheme-Text" d="M 8.3587304,8.0039062 C 6.432929,7.9164502 5.1006098,9.4858356 5.0054502,11.185547 c -0.049403,0.882426 0.2347857,1.799905 0.9421955,2.539062 L 10.999999,19 16.052353,13.724609 c 0.707406,-0.739148 0.991594,-1.656622 0.942195,-2.539062 -0.09516,-1.6997002 -1.427479,-3.2691008 -3.35328,-3.1816408 -1.096126,0.04958 -2.092147,0.680055 -2.641269,1.671875 C 10.450874,8.6839527 9.4548471,8.0534854 8.3587304,8.0039062 Z M 10.001233,11 l 0.998766,0 0.998767,0 0,2 -0.477926,0 0.977309,2 -1.49815,0 -1.4981493,0 0.9773093,-2 -0.477926,0 0,-2 z"/>
</svg>
